packages/katcn/src/icons/svg/arrow7.svg

<svg width="24" height="25" viewBox="0 0 24 25" fill="none" xmlns="http://www.w3.org/2000/svg">
<path d="M13.9 22.296H10.6C9.7 22.296 9 21.796 8.6 21.096C8.2 20.296 8.3 19.396 8.8 18.696L10.3 16.596H4.6C3.1 16.596 2 15.396 2 13.996V10.696C2 9.19599 3.2 8.09599 4.6 8.09599H10.1L8.7 5.89599C8.2 5.19599 8.1 4.29599 8.5 3.49599C8.9 2.79599 9.7 2.29599 10.6 2.29599H14C15.1 2.29599 16.2 2.79599 16.8 3.79599L21.4 10.296C22.2 11.496 22.2 13.096 21.4 14.296L16.8 20.796C16.1 21.796 15.1 22.296 13.9 22.296ZM4.6 9.99599C4.3 9.99599 4 10.296 4 10.696V13.996C4 14.296 4.3 14.596 4.6 14.596H12C12.4 14.596 12.7 14.796 12.9 15.096C13.1 15.396 13 15.796 12.8 16.096L10.2 19.796C10.1 19.896 10.1 20.096 10.2 20.096C10.2 20.196 10.3 20.296 10.5 20.296H13.9C14.4 20.296 14.8 20.096 15.1 19.696L19.7 13.196C20.1 12.696 20.1 11.996 19.7 11.496L15.1 4.99599C14.9 4.49599 14.4 4.29599 13.9 4.29599H10.6C10.4 4.29599 10.3 4.39599 10.3 4.49599C10.3 4.59599 10.2 4.69599 10.3 4.79599L12.9 8.49599C13.1 8.79599 13.1 9.19599 13 9.49599C12.8 9.79599 12.5 9.99599 12.1 9.99599H4.6Z" fill="black"/>
</svg>

<svg xmlns="http://www.w3.org/2000/svg" fill="none" viewBox="0 0 24 25"><path fill="#000" d="M13.9 22.296h-3.3c-.9 0-1.6-.5-2-1.2-.4-.8-.3-1.7.2-2.4l1.5-2.1H4.6c-1.5 0-2.6-1.2-2.6-2.6v-3.3c0-1.5 1.2-2.6 2.6-2.6h5.5l-1.4-2.2c-.5-.7-.6-1.6-.2-2.4.4-.7 1.2-1.2 2.1-1.2H14c1.1 0 2.2.5 2.8 1.5l4.6 6.5c.8 1.2.8 2.8 0 4l-4.6 6.5c-.7 1-1.7 1.5-2.9 1.5m-9.3-12.3c-.3 0-.6.3-.6.7v3.3c0 .3.3.6.6.6H12c.4 0 .7.2.9.5s.1.7-.1 1l-2.6 3.7c-.1.1-.1.3 0 .3 0 .1.1.2.3.2h3.4q.75 0 1.2-.6l4.6-6.5c.4-.5.4-1.2 0-1.7l-4.6-6.5c-.2-.5-.7-.7-1.2-.7h-3.3c-.2 0-.3.1-.3.2s-.1.2 0 .3l2.6 3.7c.2.3.2.7.1 1-.2.3-.5.5-.9.5z"/></svg>
